src/assets/outline/DocumentCode.svg

<svg width="24" height="24" viewBox="0 0 24 24"  xmlns="http://www.w3.org/2000/svg">
<path d="M16 22.75H8C4.35 22.75 2.25 20.65 2.25 17V7C2.25 3.35 4.35 1.25 8 1.25H16C19.65 1.25 21.75 3.35 21.75 7V17C21.75 20.65 19.65 22.75 16 22.75ZM8 2.75C5.14 2.75 3.75 4.14 3.75 7V17C3.75 19.86 5.14 21.25 8 21.25H16C18.86 21.25 20.25 19.86 20.25 17V7C20.25 4.14 18.86 2.75 16 2.75H8Z" />
<path d="M18.5 9.25H16.5C14.98 9.25 13.75 8.02 13.75 6.5V4.5C13.75 4.09 14.09 3.75 14.5 3.75C14.91 3.75 15.25 4.09 15.25 4.5V6.5C15.25 7.19 15.81 7.75 16.5 7.75H18.5C18.91 7.75 19.25 8.09 19.25 8.5C19.25 8.91 18.91 9.25 18.5 9.25Z" />
<path d="M9.99994 17.7495C9.80994 17.7495 9.61994 17.6795 9.46994 17.5295L7.46994 15.5295C7.17994 15.2395 7.17994 14.7595 7.46994 14.4695L9.46994 12.4695C9.75994 12.1795 10.2399 12.1795 10.5299 12.4695C10.8199 12.7595 10.8199 13.2395 10.5299 13.5295L9.05994 14.9995L10.5299 16.4695C10.8199 16.7595 10.8199 17.2395 10.5299 17.5295C10.3799 17.6795 10.1899 17.7495 9.99994 17.7495Z" />
<path d="M13.9999 17.7495C13.8099 17.7495 13.6199 17.6795 13.4699 17.5295C13.1799 17.2395 13.1799 16.7595 13.4699 16.4695L14.9399 14.9995L13.4699 13.5295C13.1799 13.2395 13.1799 12.7595 13.4699 12.4695C13.7599 12.1795 14.2399 12.1795 14.5299 12.4695L16.5299 14.4695C16.8199 14.7595 16.8199 15.2395 16.5299 15.5295L14.5299 17.5295C14.3799 17.6795 14.1899 17.7495 13.9999 17.7495Z" />
</svg>

<?xml version="1.0" encoding="UTF-8"?>
<svg width="24" height="24" viewBox="0 0 24 24" xmlns="http://www.w3.org/2000/svg">
 <path d="m16 22.75h-8c-3.65 0-5.75-2.1-5.75-5.75v-10c0-3.65 2.1-5.75 5.75-5.75h8c3.65 0 5.75 2.1 5.75 5.75v10c0 3.65-2.1 5.75-5.75 5.75zm-8-20c-2.86 0-4.25 1.39-4.25 4.25v10c0 2.86 1.39 4.25 4.25 4.25h8c2.86 0 4.25-1.39 4.25-4.25v-10c0-2.86-1.39-4.25-4.25-4.25h-8z"/>
 <path d="m18.5 9.25h-2c-1.52 0-2.75-1.23-2.75-2.75v-2c0-0.41 0.34-0.75 0.75-0.75s0.75 0.34 0.75 0.75v2c0 0.69 0.56 1.25 1.25 1.25h2c0.41 0 0.75 0.34 0.75 0.75s-0.34 0.75-0.75 0.75z"/>
 <path d="m9.9999 17.75c-0.19 0-0.38-0.07-0.53-0.22l-2-2c-0.29-0.29-0.29-0.77 0-1.06l2-2c0.29-0.29 0.76996-0.29 1.06 0s0.29 0.77 0 1.06l-1.47 1.47 1.47 1.47c0.29 0.29 0.29 0.77 0 1.06-0.15 0.15-0.34 0.22-0.52996 0.22z"/>
 <path d="m14 17.75c-0.19 0-0.38-0.07-0.53-0.22-0.29-0.29-0.29-0.77 0-1.06l1.47-1.47-1.47-1.47c-0.29-0.29-0.29-0.77 0-1.06s0.77-0.29 1.06 0l2 2c0.29 0.29 0.29 0.77 0 1.06l-2 2c-0.15 0.15-0.34 0.22-0.53 0.22z"/>
</svg>
